X: 127301
P: Country Dance.
M: 6/8
L: 1/8
K: G
|: uD |\
vG2vB uA2uc | B2G AFD |\
ud2 |\
uB |\
vc2ve dBG | AGA B2G |\
c2e dBG | AGA G2 :|


